packages/sources/assets/src/assets/oney-4x.svg

<svg width="58" height="40" viewBox="0 0 58 40" fill="none" xmlns="http://www.w3.org/2000/svg">
<rect x="0.5" y="0.5" width="57" height="39" rx="3.5" fill="white" stroke="#F3F3F3"/>
<path fill-rule="evenodd" clip-rule="evenodd" d="M40.8644 13.5366C43.5955 13.5366 45.8271 15.7849 45.8438 18.5494C45.8438 18.8149 45.8219 19.1994 45.8041 19.3912H37.7472C38.1573 21.2508 39.6548 22.0737 40.9036 22.0737C41.8869 22.0737 42.9194 21.6322 43.4665 20.977L43.4785 20.9634H45.5152C45.5152 20.9634 45.5105 20.9853 45.4891 21.0292C44.477 23.0983 42.3488 23.8277 40.8299 23.8277C39.4996 23.8277 38.2488 23.2812 37.301 22.289C36.3699 21.3093 35.8516 20.025 35.8516 18.6727C35.8516 15.7927 38.0549 13.5366 40.8644 13.5366ZM40.8487 15.288C39.2462 15.288 38.0549 16.5049 37.8073 17.75H43.885C43.6405 16.5049 42.4492 15.288 40.8487 15.288ZM27.4633 18.1288C27.4633 16.2029 28.3861 15.2295 30.2018 15.2295C32.0169 15.2295 32.9339 16.2029 32.9339 18.1288V23.8319H34.7966V17.9951C34.7857 16.9715 34.5986 16.2478 34.1848 15.5686C33.691 14.8057 32.5149 13.5225 30.2018 13.5225C27.8824 13.5225 26.7099 14.8057 26.2156 15.5686C25.7981 16.2478 25.6168 16.9715 25.5991 17.9951V23.8319H27.4633V18.1288ZM51.606 23.1124L55.5357 13.5246H53.5826L50.6357 20.734L47.6956 13.5246H45.6479L49.6644 23.1145L48.1611 26.7971H50.0986L50.6346 25.4851L51.606 23.1124ZM16.064 18.6858C16.064 20.5877 17.5567 22.0794 19.3902 22.0794C21.2111 22.0794 22.7112 20.5877 22.7112 18.6858C22.7112 16.7829 21.2111 15.288 19.3902 15.288C17.5567 15.288 16.064 16.7829 16.064 18.6858ZM14.2467 18.6848C14.2467 15.7896 16.5055 13.5246 19.3897 13.5246C22.2671 13.5246 24.5248 15.7896 24.5248 18.6848C24.5248 21.5778 22.2671 23.846 19.3897 23.846C16.5055 23.846 14.2467 21.5778 14.2467 18.6848ZM9.90425 19.6478L10.3567 20.4499H11.3704L10.4252 19.0579L11.3531 17.6895H10.3395L9.90425 18.4686L9.46901 17.6895H8.45536L9.38907 19.0579L8.43812 20.4499H9.45229L9.90425 19.6478ZM7.78552 19.3448H8.27196V18.56H7.78552V17.4549H6.8633V18.56H6.18771V16.4413H5.25975V19.3448H6.8633V20.4499H7.78552V19.3448ZM2.99994 18.6765C2.99994 15.7892 5.25296 13.5294 8.12984 13.5294C10.9999 13.5294 13.2524 15.7892 13.2524 18.6765C13.2524 21.5623 10.9999 23.8247 8.12984 23.8247C5.25296 23.8247 2.99994 21.5623 2.99994 18.6765Z" fill="#87BC2B"/>
</svg>

<svg width="58" height="40" fill="none" xmlns="http://www.w3.org/2000/svg"><rect x=".5" y=".5" width="57" height="39" rx="3.5" fill="#fff" stroke="#F3F3F3"/><path fill-rule="evenodd" clip-rule="evenodd" d="M40.864 13.537c2.732 0 4.963 2.248 4.98 5.012 0 .266-.022.65-.04.842h-8.057c.41 1.86 1.908 2.683 3.157 2.683.983 0 2.015-.442 2.563-1.097l.011-.014h2.037s-.005.022-.026.066c-1.012 2.07-3.14 2.799-4.66 2.799-1.33 0-2.58-.547-3.528-1.539a5.233 5.233 0 0 1-1.45-3.616c0-2.88 2.204-5.136 5.013-5.136Zm-.015 1.751c-1.603 0-2.794 1.217-3.042 2.462h6.078c-.244-1.245-1.436-2.462-3.036-2.462Zm-13.386 2.84c0-1.925.923-2.899 2.739-2.899 1.815 0 2.732.974 2.732 2.9v5.703h1.863v-5.837c-.011-1.024-.198-1.747-.612-2.426-.494-.763-1.67-2.046-3.983-2.046-2.32 0-3.492 1.283-3.986 2.046-.418.679-.6 1.402-.617 2.426v5.837h1.864v-5.703Zm24.143 4.984 3.93-9.587h-1.953l-2.947 7.209-2.94-7.21h-2.048l4.016 9.59-1.503 3.683H50.1l.536-1.312.971-2.373Zm-35.542-4.426c0 1.902 1.493 3.393 3.326 3.393 1.821 0 3.321-1.491 3.321-3.393 0-1.903-1.5-3.398-3.32-3.398-1.834 0-3.327 1.495-3.327 3.398Zm-1.817-.001c0-2.895 2.259-5.16 5.143-5.16 2.877 0 5.135 2.265 5.135 5.16 0 2.893-2.258 5.161-5.135 5.161-2.884 0-5.143-2.268-5.143-5.161Zm-4.343.963.453.802h1.013l-.945-1.392.928-1.369H10.34l-.435.78-.435-.78H8.455l.934 1.369-.95 1.392h1.013l.452-.802Zm-2.118-.303h.486v-.785h-.486v-1.105h-.923v1.105h-.675v-2.119H5.26v2.904h1.603v1.105h.923v-1.105ZM3 18.677c0-2.888 2.253-5.148 5.13-5.148 2.87 0 5.122 2.26 5.122 5.148 0 2.885-2.252 5.148-5.122 5.148-2.877 0-5.13-2.263-5.13-5.148Z" fill="#87BC2B"/></svg>
